Numix-Light/scalable/mimetypes/x-office-document-symbolic.svg

<?xml version="1.0" encoding="UTF-8" standalone="no"?>
<svg
   xmlns:dc="http://purl.org/dc/elements/1.1/"
   xmlns:cc="http://creativecommons.org/ns#"
   xmlns:rdf="http://www.w3.org/1999/02/22-rdf-syntax-ns#"
   xmlns:svg="http://www.w3.org/2000/svg"
   xmlns="http://www.w3.org/2000/svg"
   xmlns:sodipodi="http://sodipodi.sourceforge.net/DTD/sodipodi-0.dtd"
   xmlns:inkscape="http://www.inkscape.org/namespaces/inkscape"
   width="16"
   height="16"
   viewBox="0 0 16 16"
   id="svg2"
   version="1.1"
   inkscape:version="0.91 r"
   sodipodi:docname="x-office-presentation-document.svg">
  <metadata
     id="metadata16">
    <rdf:RDF>
      <cc:Work
         rdf:about="">
        <dc:format>image/svg+xml</dc:format>
        <dc:type
           rdf:resource="http://purl.org/dc/dcmitype/StillImage" />
        <dc:title></dc:title>
      </cc:Work>
    </rdf:RDF>
  </metadata>
  <defs
     id="defs14" />
  <sodipodi:namedview
     pagecolor="#ffffff"
     bordercolor="#666666"
     borderopacity="1"
     objecttolerance="10"
     gridtolerance="10"
     guidetolerance="10"
     inkscape:pageopacity="0"
     inkscape:pageshadow="2"
     inkscape:window-width="1920"
     inkscape:window-height="1056"
     id="namedview12"
     showgrid="true"
     inkscape:zoom="20.85965"
     inkscape:cx="5.0923131"
     inkscape:cy="2.6134397"
     inkscape:window-x="0"
     inkscape:window-y="24"
     inkscape:window-maximized="1"
     inkscape:current-layer="svg2">
    <inkscape:grid
       type="xygrid"
       id="grid3004" />
  </sodipodi:namedview>
  <path
     style="fill:#353535;fill-opacity:1"
     d="M 2.6679688,1 C 2.3242188,1 2,1.3386309 2,1.6972656 L 2,14.302734 C 2,14.640991 2.3437498,15 2.6679688,15 L 13.332031,15 C 13.65625,15 14,14.640991 14,14.302734 L 14,5 10,1 Z M 3,2 10,2 10,4.3828125 C 10,4.6819115 10.337417,5.1155828 10.613281,5 L 13,5 13,14 3,14 Z"
     id="path4-2"
     inkscape:connector-curvature="0"
     sodipodi:nodetypes="ssssssccsccsccccc" />
  <g
     id="g4422"
     transform="translate(0.08999395,8.0594901)">
    <path
       d="m 7.9100063,-0.05949046 0,1 3.9999997,0 0,-1 z"
       id="path16-7"
       inkscape:connector-curvature="0"
       style="fill:#353535;fill-opacity:1" />
    <path
       d="m 3.9100063,1.9405099 0,1 7.9999997,0 0,-1 z"
       id="path22-4"
       inkscape:connector-curvature="0"
       style="fill:#353535;fill-opacity:1" />
    <path
       d="m 3.9100063,3.9405099 0,1 7.9999997,0 0,-1 z"
       id="path28"
       inkscape:connector-curvature="0"
       style="fill:#353535;fill-opacity:1" />
    <path
       d="m 7.9100063,-2.0594905 0,1 3.9999997,0 0,-1 z"
       id="path16-4"
       inkscape:connector-curvature="0"
       style="fill:#353535;fill-opacity:1" />
    <rect
       y="-2.0594907"
       x="3.910006"
       height="3"
       width="3"
       id="rect3030"
       style="fill:#353535;fill-opacity:1;fill-rule:evenodd;stroke:none" />
  </g>
</svg>

<svg xmlns="http://www.w3.org/2000/svg" viewBox="0 0 16 16">
 <path d="m 2.668 1 c -0.344 0 -0.668 0.339 -0.668 0.697 l 0 12.605 c 0 0.338 0.344 0.697 0.668 0.697 l 10.664 0 c 0.324 0 0.668 -0.359 0.668 -0.697 l 0 -9.303 -4 -4 m -7 1 7 0 0 2.383 c 0 0.299 0.337 0.733 0.613 0.617 l 2.387 0 0 9 -10 0" style="fill:#353535;fill-opacity:1"/>
 <g transform="translate(0.08999395,8.0594901)">
  <path d="m 7.91 -0.059 0 1 4 0 0 -1 z" style="fill:#353535;fill-opacity:1"/>
  <path d="m 3.91 1.941 0 1 8 0 0 -1 z" style="fill:#353535;fill-opacity:1"/>
  <path d="m 3.91 3.941 0 1 8 0 0 -1 z" style="fill:#353535;fill-opacity:1"/>
  <path d="m 7.91 -2.059 0 1 4 0 0 -1 z" style="fill:#353535;fill-opacity:1"/>
  <rect y="-2.059" x="3.91" height="3" width="3" style="fill:#353535;fill-opacity:1;stroke:none;fill-rule:evenodd"/>
 </g>
</svg>
